X: 12052
T: Errigal Braes
R: reel
M: 4/4
K: Dmajor
Addc d2d2|Ad (3efg fded|B=cBA FGAB|[M:2/4] =cAGE|
M:4/4
Dddc d2d2|Adeg fded|B=cBA G2AB|=cAGE FD (3DDD||
FDGD FD (3DDD|ED=C2 FD (3DDD|FDGF ED=CA,|G,A,=C2 FD (3DDD|
FDGD FD (3DDD|ED=CE FD (3DDD|FDGF ED=CA,|[M:2/4] G,A, =CE||

